images_sukapura_svg/cmd/32/searchdialog.svg

<svg viewBox="0 0 32 32" xmlns="http://www.w3.org/2000/svg" xmlns:xlink="http://www.w3.org/1999/xlink"><linearGradient id="a" gradientUnits="userSpaceOnUse" x1="-.833197" x2="-.833197" y1="25.406162" y2="10.406162"><stop offset="0" stop-color="#0040dd"/><stop offset="1" stop-color="#0a84ff"/></linearGradient><path d="m19 12-15 14" fill="none" stroke="#616165" stroke-linecap="round" stroke-width="4"/><path d="m19 3c-.087731 0-.172638.0111783-.259766.0136719-.213548.0059097-.426515.0104315-.636718.03125-.071224.0070477-.140212.0225514-.210938.03125-.225536.0277986-.451183.0571484-.671875.1015625-.105323.0211194-.206588.0514104-.310547.0761718-.17823.0425771-.356939.083596-.53125.1367188-.138502.0421251-.27262.0940426-.408203.1425781-.136667.0489865-.27448.0950108-.408203.1503907-.141272.0584527-.276524.1260741-.414062.1914062-.126192.0599411-.253915.1160271-.376954.1816406-.119555.0637924-.233348.1361235-.349609.2050782-.135156.0800745-.271686.157234-.402344.2441406-.103817.069144-.202014.1454681-.302734.21875-.132291.0961042-.265707.1898631-.392578.2929687-.088433.0719794-.170261.1513377-.25586.2265625-.136257.1195491-.273404.2376055-.402343.3652344-.059881.0593532-.113673.1245416-.171875.1855469-.139109.1456203-.278878.2903696-.408203.4453125-.059455.0712824-.112657.1475788-.169922.2207031-.123553.1576771-.246245.3162325-.359375.4824219-.039811.0584772-.074824.1202345-.113282.1796875-.118442.1831473-.234534.3681323-.339843.5605469-.03889.0709749-.072359.1446755-.109375.2167968-.0942.1837901-.187745.3672909-.269532.5585938-.044525.1039289-.080413.212459-.121093.3183594-.063595.1659173-.129587.3310995-.183594.5019531-.039556.1248182-.067369.2537508-.101563.3808593-.043413.1617201-.090364.3207746-.125.4863278-.026847.128235-.043128.260448-.064453.390625-.025206.153444-.056714.304637-.074218.460938-.001766.015757-.000288.031132-.001954.046875-.033161.314105-.052734.632183-.052734.955078 0 4.766746 3.708735 8.656827 8.396484 8.96875.031913-.094759.081347-.177424.117188-.269531.025388.095593.064755.183455.085937.28125.283491.012792.565123.011473.84375-.001953.224066-.688936.542777-1.318515.972657-1.869141.93264-1.201368 2.311657-1.880859 3.828125-1.880859.641498 0 1.243839.137568 1.808593.349609.041335-.052062.078931-.107133.119141-.160156v-3.417969a1.0178898 1.0178898 0 0 1 1.017578-1.017578h.753906c.034218-.312105.05057-.622366.052735-.929688.000122-.017832.003906-.03487.003906-.052734 0-.1451-.014694-.286268-.021484-.429688-.006915-.147515-.009379-.295531-.023438-.441406-.014138-.147049-.039418-.290651-.060547-.435547-.021757-.148628-.039331-.298855-.068359-.445312-.036253-.183709-.085564-.3615083-.132813-.5410158-.026236-.0993718-.04662-.2007161-.076171-.2988281-.062802-.209021-.137558-.4129174-.214844-.6152343-.025737-.0672794-.046911-.1365822-.074219-.203125-.083532-.2037888-.179614-.3997248-.277344-.5957032-.031993-.0641608-.060266-.1300384-.09375-.1933594-.09486-.1793323-.200273-.351544-.30664-.5234374-.046895-.0758634-.089584-.1541159-.138672-.2285157-.108687-.1645343-.226739-.3217788-.345703-.4785156-.05513-.0727431-.106763-.1477107-.164063-.21875-.111429-.1379426-.232325-.267387-.351562-.3984375-.079401-.0874033-.15547-.1774395-.238282-.2617188-.098555-.1001635-.203517-.1935811-.30664-.2890624-.110458-.1024131-.21834-.2077734-.333985-.3046876-.107121-.0896781-.220759-.1711604-.332031-.2558593-.117753-.0896934-.233091-.1816376-.355469-.265625-.118265-.0811599-.242989-.1529518-.365234-.2285157-.124464-.0769122-.246407-.1575326-.375-.2285156-.138807-.0766928-.282615-.1434403-.425781-.2128906-.116505-.0564377-.230191-.1164181-.34961-.1679688-.176259-.0762298-.359131-.1400097-.541015-.2050781-.094129-.0336068-.185584-.0729423-.28125-.1035156-.196298-.062869-.397703-.1106551-.59961-.1601563-.090555-.0221743-.177808-.0508535-.269531-.0703124-.208112-.0441621-.421611-.074011-.634765-.1035157-.081351-.0113386-.16006-.0298641-.242188-.0390625-.009182-.0010284-.018165-.0009531-.027344-.0019531-.167208-.0179865-.337989-.0225504-.507812-.03125-.143329-.007548-.28749-.0207309-.429688-.0214844-.011864-.0000459-.023281-.0019531-.035156-.0019531z" fill="#646464"/><path d="m19 5a7 7 0 0 0 -.599609.0292969 7 7 0 0 0 -.345703.0429687 7 7 0 0 0 -.335938.0507813 7 7 0 0 0 -.378906.0839843 7 7 0 0 0 -.298828.078125 7 7 0 0 0 -.363282.1191407 7 7 0 0 0 -.300781.1113281 7 7 0 0 0 -.324219.1445312 7 7 0 0 0 -.324218.15625 7 7 0 0 0 -.28711.1640626 7 7 0 0 0 -.300781.1855468 7 7 0 0 0 -.306641.21875 7 7 0 0 0 -.257812.1972656 7 7 0 0 0 -.269531.234375 7 7 0 0 0 -.253907.2363282 7 7 0 0 0 -.236328.2539062 7 7 0 0 0 -.234375.2695313 7 7 0 0 0 -.197265.2578125 7 7 0 0 0 -.21875.3066406 7 7 0 0 0 -.185547.3007812 7 7 0 0 0 -.164063.2871094 7 7 0 0 0 -.15625.3242188 7 7 0 0 0 -.144531.3242187 7 7 0 0 0 -.111328.3007813 7 7 0 0 0 -.119141.3632816 7 7 0 0 0 -.078125.298828 7 7 0 0 0 -.083984.378906 7 7 0 0 0 -.050781.335938 7 7 0 0 0 -.042969.345703 7 7 0 0 0 -.029297.599609 7 7 0 0 0 .021484.410156 7 7 0 0 0 .03125.402344 7 7 0 0 0 .039063.263672 7 7 0 0 0 .082031.449219 7 7 0 0 0 .048828.193359 7 7 0 0 0 .140625.486328 7 7 0 0 0 .060547.166016 7 7 0 0 0 .199219.5 7 7 0 0 0 .058594.121094 7 7 0 0 0 .263671.507812 7 7 0 0 0 .048829.080078 7 7 0 0 0 .339843.519531 7 7 0 0 0 .03125.041016 7 7 0 0 0 .40625.501953 7 7 0 0 0 .039063.042969 7 7 0 0 0 .457031.462891 7 7 0 0 0 .023438.019531 7 7 0 0 0 .521484.43164 7 7 0 0 0 3.605469 1.373047 7 7 0 0 0 .007812 0 7 7 0 0 0 .574219.027344 7 7 0 0 0 .574219-.027344 7 7 0 0 0 .007812 0 7 7 0 0 0 1.123047-.195312c.765885-.826944 1.764989-1.349957 2.871094-1.5a7 7 0 0 0 .132812-.109375 7 7 0 0 0 .023438-.019531 7 7 0 0 0 .457031-.462891 7 7 0 0 0 .039063-.042969 7 7 0 0 0 .40625-.501953 7 7 0 0 0 .03125-.041016 7 7 0 0 0 .339843-.519531 7 7 0 0 0 .048829-.080078 7 7 0 0 0 .263671-.507812 7 7 0 0 0 .058594-.121094 7 7 0 0 0 .199219-.5 7 7 0 0 0 .060547-.166016 7 7 0 0 0 .140625-.486328 7 7 0 0 0 .048828-.193359 7 7 0 0 0 .082031-.449219 7 7 0 0 0 .039063-.263672 7 7 0 0 0 .03125-.402344 7 7 0 0 0 .021484-.410156 7 7 0 0 0 -.029297-.599609 7 7 0 0 0 -.042969-.345703 7 7 0 0 0 -.050781-.335938 7 7 0 0 0 -.083984-.378906 7 7 0 0 0 -.078125-.298828 7 7 0 0 0 -.119141-.3632816 7 7 0 0 0 -.111328-.3007813 7 7 0 0 0 -.144531-.3242187 7 7 0 0 0 -.15625-.3242188 7 7 0 0 0 -.164063-.2871094 7 7 0 0 0 -.185547-.3007812 7 7 0 0 0 -.21875-.3066406 7 7 0 0 0 -.197265-.2578125 7 7 0 0 0 -.234375-.2695313 7 7 0 0 0 -.236328-.2539062 7 7 0 0 0 -.253907-.2363282 7 7 0 0 0 -.269531-.234375 7 7 0 0 0 -.257812-.1972656 7 7 0 0 0 -.306641-.21875 7 7 0 0 0 -.300781-.1855468 7 7 0 0 0 -.28711-.1640626 7 7 0 0 0 -.324218-.15625 7 7 0 0 0 -.324219-.1445312 7 7 0 0 0 -.300781-.1113281 7 7 0 0 0 -.363282-.1191407 7 7 0 0 0 -.298828-.078125 7 7 0 0 0 -.378906-.0839843 7 7 0 0 0 -.335938-.0507813 7 7 0 0 0 -.345703-.0429687 7 7 0 0 0 -.599609-.0292969z" fill="#fff"/><path d="m21.356641 16.781919q-.156559-.313118-.254409-1.115484-1.262258 1.311184-3.013765 1.311184-1.565592 0-2.573443-.880646-.998065-.890431-.998065-2.250539 0-1.653657 1.252474-2.563658 1.262259-.919786 3.542153-.919786h1.761292v-.8317205q0-.9491404-.567528-1.5068827-.567527-.5675273-1.673227-.5675273-.96871 0-1.624302.4892477-.655592.4892476-.655592 1.1839792h-1.820001q0-.7925811.557743-1.5264526.567527-.7436564 1.526452-1.1741943.96871-.4305379 2.123335-.4305379 1.829786 0 2.866991.9197855 1.037205.9100006 1.076345 2.5147329v4.872906q0 1.457958.371828 2.319034v.156559zm-3.00398-1.379678q.851291 0 1.614517-.440323.763226-.440323 1.1057-1.144839v-2.17226h-1.418819q-3.326883 0-3.326883 1.947206 0 .851291.567527 1.330753.567527.479463 1.457958.479463z" fill="#616165"/><path d="m20.063649 23.647346q0-2.436453 1.154625-3.913981 1.154624-1.487313 3.02355-1.487313 1.859141 0 2.945271 1.272044v-5.518714h1.810216v15.029688h-1.663442l-.08806-1.135055q-1.08613 1.330754-3.023551 1.330754-1.839571 0-3.00398-1.506883-1.154625-1.506882-1.154625-3.933551zm1.810217.205484q0 1.800431.743656 2.818066.743657 1.017635 2.05484 1.017635 1.722152 0 2.514733-1.546022v-4.863122q-.812151-1.497097-2.495163-1.497097-1.330753 0-2.07441 1.02742-.743656 1.02742-.743656 3.04312z" fill="url(#a)" transform="translate(.002689 .000618)"/></svg>

<?xml version="1.0" encoding="UTF-8" standalone="no"?>
<svg
   xmlns:dc="http://purl.org/dc/elements/1.1/"
   xmlns:cc="http://creativecommons.org/ns#"
   xmlns:rdf="http://www.w3.org/1999/02/22-rdf-syntax-ns#"
   xmlns:svg="http://www.w3.org/2000/svg"
   xmlns="http://www.w3.org/2000/svg"
   xmlns:sodipodi="http://sodipodi.sourceforge.net/DTD/sodipodi-0.dtd"
   xmlns:inkscape="http://www.inkscape.org/namespaces/inkscape"
   viewBox="0 0 32 32"
   version="1.1"
   id="svg17"
   sodipodi:docname="searchdialog.svg"
   inkscape:version="0.92.3 (2405546, 2018-03-11)">
  <metadata
     id="metadata23">
    <rdf:RDF>
      <cc:Work
         rdf:about="">
        <dc:format>image/svg+xml</dc:format>
        <dc:type
           rdf:resource="http://purl.org/dc/dcmitype/StillImage" />
      </cc:Work>
    </rdf:RDF>
  </metadata>
  <defs
     id="defs21" />
  <sodipodi:namedview
     pagecolor="#ffffff"
     bordercolor="#666666"
     borderopacity="1"
     objecttolerance="10"
     gridtolerance="10"
     guidetolerance="10"
     inkscape:pageopacity="0"
     inkscape:pageshadow="2"
     inkscape:window-width="1366"
     inkscape:window-height="716"
     id="namedview19"
     showgrid="true"
     inkscape:snap-global="false"
     inkscape:zoom="7.375"
     inkscape:cx="-0.15739215"
     inkscape:cy="-7.1200784"
     inkscape:window-x="-8"
     inkscape:window-y="-8"
     inkscape:window-maximized="1"
     inkscape:current-layer="svg17">
    <inkscape:grid
       type="xygrid"
       id="grid830" />
  </sodipodi:namedview>
  <linearGradient
     id="a"
     gradientUnits="userSpaceOnUse"
     x1="-.833197"
     x2="-.833197"
     y1="25.406162"
     y2="10.406162">
    <stop
       offset="0"
       stop-color="#0040dd"
       id="stop2" />
    <stop
       offset="1"
       stop-color="#0a84ff"
       id="stop4" />
  </linearGradient>
  <rect
     style="fill:#4b4b4f;fill-opacity:1;stroke:none;stroke-opacity:1"
     id="rect832"
     width="4"
     height="18"
     x="19.664339"
     y="-1.6009653"
     ry="1"
     inkscape:transform-center-x="1.8160277"
     inkscape:transform-center-y="2.3651487"
     transform="rotate(47.630937)" />
  <path
     d="m 19,3 c -0.08773,0 -0.172638,0.011178 -0.259766,0.013672 -0.213548,0.00591 -0.426515,0.010432 -0.636718,0.03125 -0.07122,0.00705 -0.140212,0.022551 -0.210938,0.03125 -0.225536,0.027799 -0.451183,0.057148 -0.671875,0.1015625 -0.105323,0.021119 -0.206588,0.05141 -0.310547,0.076172 -0.17823,0.042577 -0.356939,0.083596 -0.53125,0.1367188 -0.138502,0.042125 -0.27262,0.094043 -0.408203,0.1425781 -0.136667,0.048986 -0.27448,0.095011 -0.408203,0.1503907 -0.141272,0.058453 -0.276524,0.1260741 -0.414062,0.1914062 -0.126192,0.059941 -0.253915,0.1160271 -0.376954,0.1816406 -0.119555,0.063792 -0.233348,0.1361235 -0.349609,0.2050782 -0.135156,0.080075 -0.271686,0.157234 -0.402344,0.2441406 -0.103817,0.069144 -0.202014,0.1454681 -0.302734,0.21875 -0.132291,0.096104 -0.265707,0.1898631 -0.392578,0.2929687 -0.08843,0.071979 -0.170261,0.1513377 -0.25586,0.2265625 -0.136257,0.1195491 -0.273404,0.2376055 -0.402343,0.3652344 -0.05988,0.059353 -0.113673,0.1245416 -0.171875,0.1855469 -0.139109,0.1456203 -0.278878,0.2903696 -0.408203,0.4453125 -0.05945,0.071282 -0.112657,0.1475788 -0.169922,0.2207031 -0.123553,0.1576771 -0.246245,0.3162325 -0.359375,0.4824219 -0.03981,0.058477 -0.07482,0.1202345 -0.113282,0.1796875 -0.118442,0.1831473 -0.234534,0.3681323 -0.339843,0.5605469 -0.03889,0.070975 -0.07236,0.1446755 -0.109375,0.2167968 -0.0942,0.1837901 -0.187745,0.3672909 -0.269532,0.5585938 -0.04452,0.1039289 -0.08041,0.212459 -0.121093,0.3183594 -0.0636,0.1659173 -0.129587,0.3310995 -0.183594,0.5019531 -0.03956,0.1248182 -0.06737,0.2537508 -0.101563,0.3808593 -0.04341,0.1617201 -0.09036,0.3207746 -0.125,0.4863278 -0.02685,0.128235 -0.04313,0.260448 -0.06445,0.390625 -0.02521,0.153444 -0.05671,0.304637 -0.07422,0.460938 -0.0018,0.01576 -2.88e-4,0.03113 -0.002,0.04687 C 10.019573,11.359027 10,11.677105 10,12 c 0,4.766746 3.708735,8.656827 8.396484,8.96875 l 0.203125,0.01172 c 0.283491,0.01279 0.565123,0.01147 0.84375,-0.002 0.224066,-0.688936 0.542777,-1.318515 0.972657,-1.869141 0.93264,-1.201368 2.311657,-1.880859 3.828125,-1.880859 0.641498,0 1.243839,0.137568 1.808593,0.349609 0.04134,-0.05206 0.07893,-0.107133 0.119141,-0.160156 V 14 c 1.72e-4,-0.561922 0.455656,-1.017406 1.017578,-1.017578 h 0.753906 c 0.03422,-0.312105 0.05057,-0.622366 0.05273,-0.929688 C 27.996216,12.034902 28,12.017864 28,12 c 0,-0.1451 -0.01469,-0.286268 -0.02148,-0.429688 -0.0069,-0.147515 -0.0094,-0.295531 -0.02344,-0.441406 -0.01414,-0.147049 -0.03942,-0.290651 -0.06055,-0.435547 -0.02176,-0.148628 -0.03933,-0.298855 -0.06836,-0.445312 -0.03625,-0.183709 -0.08556,-0.3615083 -0.132813,-0.5410158 -0.02624,-0.099372 -0.04662,-0.2007161 -0.07617,-0.2988281 -0.0628,-0.209021 -0.137558,-0.4129174 -0.214844,-0.6152343 -0.02574,-0.067279 -0.04691,-0.1365822 -0.07422,-0.203125 C 27.244593,8.386055 27.148511,8.190119 27.050781,7.9941406 27.018788,7.9299798 26.990515,7.8641022 26.957031,7.8007812 26.862171,7.6214489 26.756758,7.4492372 26.650391,7.2773438 26.603496,7.2014804 26.560807,7.1232279 26.511719,7.0488281 26.403032,6.8842938 26.28498,6.7270493 26.166016,6.5703125 26.110886,6.4975694 26.059253,6.4226018 26.001953,6.3515625 25.890524,6.2136199 25.769628,6.0841755 25.650391,5.953125 25.57099,5.8657217 25.494921,5.7756855 25.412109,5.6914062 25.313554,5.5912427 25.208592,5.4978251 25.105469,5.4023438 24.995011,5.2999307 24.887129,5.1945704 24.771484,5.0976562 24.664363,5.0079781 24.550725,4.9264958 24.439453,4.8417969 24.3217,4.7521035 24.206362,4.6601593 24.083984,4.5761719 23.965719,4.495012 23.840995,4.4232201 23.71875,4.3476562 23.594286,4.270744 23.472343,4.1901236 23.34375,4.1191406 23.204943,4.0424478 23.061135,3.9757003 22.917969,3.90625 22.801464,3.8498123 22.687778,3.7898319 22.568359,3.7382812 22.3921,3.6620514 22.209228,3.5982715 22.027344,3.5332031 21.933215,3.4995963 21.84176,3.4602608 21.746094,3.4296875 21.549796,3.3668185 21.348391,3.3190324 21.146484,3.2695312 21.055929,3.2473569 20.968676,3.2186777 20.876953,3.1992188 20.668841,3.1550567 20.455342,3.1252078 20.242188,3.0957031 20.160837,3.0843645 20.082128,3.065839 20,3.0566406 c -0.0092,-0.00103 -0.01816,-9.531e-4 -0.02734,-0.00195 -0.167208,-0.017987 -0.337989,-0.02255 -0.507812,-0.03125 -0.143329,-0.00755 -0.28749,-0.020731 -0.429688,-0.021484 C 19.023292,3.0019072 19.011875,3 19,3 Z"
     id="path9"
     style="fill:#4b4b4f;fill-opacity:1"
     inkscape:connector-curvature="0"
     sodipodi:nodetypes="scccccccccccccccccccccccccccccccsccccsccccccscccccccccccccccccccccccccccccscccs" />
  <path
     d="m19 5a7 7 0 0 0 -.599609.0292969 7 7 0 0 0 -.345703.0429687 7 7 0 0 0 -.335938.0507813 7 7 0 0 0 -.378906.0839843 7 7 0 0 0 -.298828.078125 7 7 0 0 0 -.363282.1191407 7 7 0 0 0 -.300781.1113281 7 7 0 0 0 -.324219.1445312 7 7 0 0 0 -.324218.15625 7 7 0 0 0 -.28711.1640626 7 7 0 0 0 -.300781.1855468 7 7 0 0 0 -.306641.21875 7 7 0 0 0 -.257812.1972656 7 7 0 0 0 -.269531.234375 7 7 0 0 0 -.253907.2363282 7 7 0 0 0 -.236328.2539062 7 7 0 0 0 -.234375.2695313 7 7 0 0 0 -.197265.2578125 7 7 0 0 0 -.21875.3066406 7 7 0 0 0 -.185547.3007812 7 7 0 0 0 -.164063.2871094 7 7 0 0 0 -.15625.3242188 7 7 0 0 0 -.144531.3242187 7 7 0 0 0 -.111328.3007813 7 7 0 0 0 -.119141.3632816 7 7 0 0 0 -.078125.298828 7 7 0 0 0 -.083984.378906 7 7 0 0 0 -.050781.335938 7 7 0 0 0 -.042969.345703 7 7 0 0 0 -.029297.599609 7 7 0 0 0 .021484.410156 7 7 0 0 0 .03125.402344 7 7 0 0 0 .039063.263672 7 7 0 0 0 .082031.449219 7 7 0 0 0 .048828.193359 7 7 0 0 0 .140625.486328 7 7 0 0 0 .060547.166016 7 7 0 0 0 .199219.5 7 7 0 0 0 .058594.121094 7 7 0 0 0 .263671.507812 7 7 0 0 0 .048829.080078 7 7 0 0 0 .339843.519531 7 7 0 0 0 .03125.041016 7 7 0 0 0 .40625.501953 7 7 0 0 0 .039063.042969 7 7 0 0 0 .457031.462891 7 7 0 0 0 .023438.019531 7 7 0 0 0 .521484.43164 7 7 0 0 0 3.605469 1.373047 7 7 0 0 0 .007812 0 7 7 0 0 0 .574219.027344 7 7 0 0 0 .574219-.027344 7 7 0 0 0 .007812 0 7 7 0 0 0 1.123047-.195312c.765885-.826944 1.764989-1.349957 2.871094-1.5a7 7 0 0 0 .132812-.109375 7 7 0 0 0 .023438-.019531 7 7 0 0 0 .457031-.462891 7 7 0 0 0 .039063-.042969 7 7 0 0 0 .40625-.501953 7 7 0 0 0 .03125-.041016 7 7 0 0 0 .339843-.519531 7 7 0 0 0 .048829-.080078 7 7 0 0 0 .263671-.507812 7 7 0 0 0 .058594-.121094 7 7 0 0 0 .199219-.5 7 7 0 0 0 .060547-.166016 7 7 0 0 0 .140625-.486328 7 7 0 0 0 .048828-.193359 7 7 0 0 0 .082031-.449219 7 7 0 0 0 .039063-.263672 7 7 0 0 0 .03125-.402344 7 7 0 0 0 .021484-.410156 7 7 0 0 0 -.029297-.599609 7 7 0 0 0 -.042969-.345703 7 7 0 0 0 -.050781-.335938 7 7 0 0 0 -.083984-.378906 7 7 0 0 0 -.078125-.298828 7 7 0 0 0 -.119141-.3632816 7 7 0 0 0 -.111328-.3007813 7 7 0 0 0 -.144531-.3242187 7 7 0 0 0 -.15625-.3242188 7 7 0 0 0 -.164063-.2871094 7 7 0 0 0 -.185547-.3007812 7 7 0 0 0 -.21875-.3066406 7 7 0 0 0 -.197265-.2578125 7 7 0 0 0 -.234375-.2695313 7 7 0 0 0 -.236328-.2539062 7 7 0 0 0 -.253907-.2363282 7 7 0 0 0 -.269531-.234375 7 7 0 0 0 -.257812-.1972656 7 7 0 0 0 -.306641-.21875 7 7 0 0 0 -.300781-.1855468 7 7 0 0 0 -.28711-.1640626 7 7 0 0 0 -.324218-.15625 7 7 0 0 0 -.324219-.1445312 7 7 0 0 0 -.300781-.1113281 7 7 0 0 0 -.363282-.1191407 7 7 0 0 0 -.298828-.078125 7 7 0 0 0 -.378906-.0839843 7 7 0 0 0 -.335938-.0507813 7 7 0 0 0 -.345703-.0429687 7 7 0 0 0 -.599609-.0292969z"
     fill="#fff"
     id="path11" />
  <path
     d="m21.356641 16.781919q-.156559-.313118-.254409-1.115484-1.262258 1.311184-3.013765 1.311184-1.565592 0-2.573443-.880646-.998065-.890431-.998065-2.250539 0-1.653657 1.252474-2.563658 1.262259-.919786 3.542153-.919786h1.761292v-.8317205q0-.9491404-.567528-1.5068827-.567527-.5675273-1.673227-.5675273-.96871 0-1.624302.4892477-.655592.4892476-.655592 1.1839792h-1.820001q0-.7925811.557743-1.5264526.567527-.7436564 1.526452-1.1741943.96871-.4305379 2.123335-.4305379 1.829786 0 2.866991.9197855 1.037205.9100006 1.076345 2.5147329v4.872906q0 1.457958.371828 2.319034v.156559zm-3.00398-1.379678q.851291 0 1.614517-.440323.763226-.440323 1.1057-1.144839v-2.17226h-1.418819q-3.326883 0-3.326883 1.947206 0 .851291.567527 1.330753.567527.479463 1.457958.479463z"
     fill="#616165"
     id="path13"
     style="fill:#4b4b4f;fill-opacity:1" />
  <path
     d="m20.063649 23.647346q0-2.436453 1.154625-3.913981 1.154624-1.487313 3.02355-1.487313 1.859141 0 2.945271 1.272044v-5.518714h1.810216v15.029688h-1.663442l-.08806-1.135055q-1.08613 1.330754-3.023551 1.330754-1.839571 0-3.00398-1.506883-1.154625-1.506882-1.154625-3.933551zm1.810217.205484q0 1.800431.743656 2.818066.743657 1.017635 2.05484 1.017635 1.722152 0 2.514733-1.546022v-4.863122q-.812151-1.497097-2.495163-1.497097-1.330753 0-2.07441 1.02742-.743656 1.02742-.743656 3.04312z"
     fill="url(#a)"
     transform="translate(.002689 .000618)"
     id="path15" />
</svg>
